public/tokens/sDAI.svg

<svg width="40" height="40" viewBox="0 0 40 40" fill="none" xmlns="http://www.w3.org/2000/svg">
<g clip-path="url(#clip0_4004_57042)">
<path d="M20 0C31.0467 0 40 8.95509 40 20C40 31.0467 31.0467 40 20 40C8.95509 40 0 31.0458 0 20C0 8.95509 8.95509 0 20 0Z" fill="#89BD3A"/>
<path d="M20.7383 21.4123H28.338C28.5 21.4123 28.5765 21.4123 28.5882 21.1999C28.6503 20.4268 28.6503 19.6492 28.5882 18.8752C28.5882 18.7249 28.5135 18.6628 28.3506 18.6628H13.2259C13.0387 18.6628 12.9883 18.7249 12.9883 18.9004V21.1252C12.9883 21.4123 12.9883 21.4123 13.288 21.4123H20.7383ZM27.7395 16.0626C27.7611 16.0059 27.7611 15.9438 27.7395 15.888C27.6126 15.6117 27.4623 15.348 27.2877 15.1005C27.0249 14.6775 26.7153 14.2878 26.3625 13.9377C26.196 13.7262 26.0034 13.5363 25.7873 13.3752C24.7055 12.4545 23.4194 11.8029 22.037 11.4753C21.3395 11.3187 20.6267 11.244 19.9121 11.2503H13.1998C13.0126 11.2503 12.9874 11.325 12.9874 11.4879V15.9249C12.9874 16.1121 12.9874 16.1625 13.225 16.1625H27.6495C27.6495 16.1625 27.7746 16.1373 27.7998 16.0626H27.7386H27.7395ZM27.7395 24.0124C27.5271 23.989 27.3129 23.989 27.1005 24.0124H13.2385C13.0513 24.0124 12.9883 24.0124 12.9883 24.2626V28.6006C12.9883 28.8005 12.9883 28.8509 13.2385 28.8509H19.6385C19.9445 28.8743 20.2505 28.8527 20.5502 28.7888C21.479 28.7222 22.3925 28.5205 23.2637 28.1884C23.5805 28.0786 23.8865 27.9355 24.1754 27.7636H24.2627C25.763 26.9833 26.9817 25.7575 27.7503 24.2527C27.7503 24.2527 27.8376 24.0637 27.7395 24.0142V24.0124ZM10.4764 31.1V31.0253V28.1128V27.1255V24.1879C10.4764 24.025 10.4764 24.0007 10.2766 24.0007H7.56396C7.41366 24.0007 7.35156 24.0007 7.35156 23.8009V21.4258H10.2514C10.4134 21.4258 10.4764 21.4258 10.4764 21.2134V18.8635C10.4764 18.7132 10.4764 18.6763 10.2766 18.6763H7.56396C7.41366 18.6763 7.35156 18.6763 7.35156 18.4764V16.2768C7.35156 16.1391 7.35156 16.1022 7.55136 16.1022H10.2388C10.426 16.1022 10.4764 16.1022 10.4764 15.8646V9.12716C10.4764 8.92735 10.4764 8.87695 10.7266 8.87695H20.1011C20.7815 8.90395 21.4574 8.97865 22.1261 9.10196C23.504 9.35666 24.8279 9.84896 26.0385 10.5519C26.8413 11.0244 27.5802 11.595 28.2381 12.252C28.7331 12.7659 29.1795 13.3221 29.5755 13.9143C29.9688 14.5146 30.2955 15.1563 30.552 15.8268C30.5835 16.0014 30.7509 16.1193 30.9255 16.0896H33.1629C33.45 16.0896 33.45 16.0896 33.4626 16.365V18.4152C33.4626 18.6151 33.3879 18.6655 33.1872 18.6655H31.4619C31.2873 18.6655 31.2369 18.6655 31.2495 18.8905C31.3179 19.6519 31.3179 20.416 31.2495 21.1774C31.2495 21.3898 31.2495 21.415 31.488 21.415H33.4617C33.549 21.5275 33.4617 21.64 33.4617 21.7534C33.4743 21.8983 33.4743 22.045 33.4617 22.1899V23.7028C33.4617 23.9152 33.3996 23.9782 33.2115 23.9782H30.849C30.6843 23.9467 30.5241 24.052 30.4863 24.2158C29.9238 25.6783 29.0238 26.9896 27.861 28.0408C27.4362 28.4233 26.9898 28.7834 26.5236 29.1155C26.0232 29.4035 25.5362 29.7032 25.0232 29.9408C24.0791 30.3656 23.0891 30.6788 22.073 30.8777C21.1082 31.0505 20.1299 31.1288 19.148 31.1153H10.4728V31.1027L10.4764 31.1Z" fill="#FEFEFD"/>
</g>
<defs>
<clipPath id="clip0_4004_57042">
<rect width="40" height="40" fill="white"/>
</clipPath>
</defs>
</svg>

<svg xmlns="http://www.w3.org/2000/svg" width="40" height="40" fill="none" viewBox="0 0 40 40"><g clip-path="url(#a)"><path fill="#89bd3a" d="M20 0c11.047 0 20 8.955 20 20 0 11.047-8.953 20-20 20C8.955 40 0 31.046 0 20S8.955 0 20 0"/><path fill="#fefefd" d="M20.738 21.412h7.6c.162 0 .238 0 .25-.212q.093-1.161 0-2.325c0-.15-.075-.212-.237-.212H13.226c-.187 0-.238.062-.238.237v2.225c0 .287 0 .287.3.287zm7.002-5.35a.24.24 0 0 0 0-.174 5 5 0 0 0-.452-.787 6.4 6.4 0 0 0-.925-1.163 3 3 0 0 0-.576-.563 9 9 0 0 0-3.75-1.9 9.3 9.3 0 0 0-2.125-.225H13.2c-.187 0-.213.075-.213.238v4.437c0 .187 0 .238.238.238H27.65s.125-.026.15-.1h-.061m0 7.95a3 3 0 0 0-.64 0h-13.86c-.187 0-.25 0-.25.25v4.339c0 .2 0 .25.25.25h6.4q.46.034.912-.062a9.5 9.5 0 0 0 2.714-.6q.477-.166.911-.425h.088a8.12 8.12 0 0 0 3.487-3.511s.088-.19-.01-.239zM10.476 31.1v-6.912c0-.163 0-.187-.2-.187H7.565c-.15 0-.212 0-.212-.2v-2.375h2.9c.161 0 .224 0 .224-.213v-2.35c0-.15 0-.187-.2-.187H7.565c-.15 0-.212 0-.212-.2v-2.2c0-.137 0-.174.2-.174h2.687c.187 0 .237 0 .237-.237V9.127c0-.2 0-.25.25-.25h9.375q1.02.04 2.025.225c1.378.255 2.702.747 3.912 1.45a11 11 0 0 1 2.2 1.7q.743.772 1.338 1.662c.393.6.72 1.242.976 1.913a.325.325 0 0 0 .373.263h2.238c.287 0 .287 0 .3.275v2.05c0 .2-.075.25-.276.25h-1.725c-.175 0-.225 0-.212.226a13 13 0 0 1 0 2.286c0 .213 0 .238.238.238h1.974c.087.113 0 .225 0 .338q.018.219 0 .437v1.513c0 .212-.062.275-.25.275H30.85a.313.313 0 0 0-.363.238 10 10 0 0 1-2.625 3.825q-.638.574-1.337 1.075c-.5.288-.988.587-1.5.825-.945.425-1.935.738-2.951.937a15.4 15.4 0 0 1-2.925.237h-8.675v-.012z"/></g><defs><clipPath id="a"><path fill="#fff" d="M0 0h40v40H0z"/></clipPath></defs></svg>
